src/img/ico-layer-lock-white.svg

<svg baseProfile="basic" xmlns="http://www.w3.org/2000/svg" width="12" height="16" viewBox="44 42 12 16">
    <title>
        visibility
    </title>
    <path fill="#F7F6EE" d="M53.706 49.726v-2.258c0-2.092-1.702-3.794-3.794-3.794s-3.794 1.702-3.794 3.794v2.258h-1.026l-.018 7.243h9.65l.026-7.25h-1.044zm-6.898-2.258c0-1.712 1.393-3.104 3.104-3.104 1.712 0 3.104 1.393 3.104 3.104v2.258H51.98v-2.24c0-1.14-.927-2.068-2.068-2.068-1.14 0-2.07.928-2.07 2.07v2.238H46.81v-2.258zm4.484 2.258h-2.76v-2.24c0-.76.62-1.38 1.38-1.38s1.38.62 1.38 1.38v2.24zm-.645 4.865v.31h-1.38v-.3l.306-1.314c-.26-.127-.442-.392-.442-.7 0-.432.35-.782.79-.782.43 0 .78.35.78.78 0 .31-.18.576-.44.703l.396 1.312z"/>
</svg>

<?xml version="1.0" encoding="utf-8"?>
<!DOCTYPE svg PUBLIC "-//W3C//DTD SVG 1.1 Basic//EN" "http://www.w3.org/Graphics/SVG/1.1/DTD/svg11-basic.dtd">
<svg version="1.1" baseProfile="basic" id="Layer_1"
	 xmlns="http://www.w3.org/2000/svg" xmlns:xlink="http://www.w3.org/1999/xlink" x="0px" y="0px" width="12px" height="16px"
	 viewBox="44 42 12 16" xml:space="preserve">
<title>visibility</title>
<path fill="#F7F6EE" d="M53.706,49.726v-2.258c0-2.092-1.702-3.794-3.794-3.794s-3.794,1.702-3.794,3.794v2.258h-1.026l-0.018,7.243
	h9.651l0.025-7.243H53.706z M46.808,47.468c0-1.712,1.393-3.104,3.104-3.104c1.712,0,3.104,1.393,3.104,3.104v2.258h-1.035v-2.239
	c0-1.141-0.928-2.069-2.069-2.069c-1.141,0-2.069,0.928-2.069,2.069v2.239h-1.035V47.468z M51.292,49.726h-2.759v-2.239
	c0-0.761,0.619-1.38,1.38-1.38s1.38,0.619,1.38,1.38V49.726z M50.647,54.591v0.309h-1.38v-0.306l0.306-1.317
	c-0.261-0.127-0.442-0.392-0.442-0.701c0-0.431,0.35-0.781,0.782-0.781c0.431,0,0.78,0.349,0.78,0.781
	c0,0.31-0.181,0.574-0.442,0.701L50.647,54.591z"/>

</svg>
